<?xml version="1.0" encoding="UTF-8"?>
<map version="1.10" tiledversion="1.11.2" orientation="orthogonal" renderorder="right-down" width="10" height="10" tilewidth="32" tileheight="32" infinite="0" nextlayerid="4" nextobjectid="1">
 <tileset firstgid="1" name="tilesheet" tilewidth="32" tileheight="32" tilecount="36" columns="6">
  <image source="tilesheet.png" trans="000000" width="192" height="192"/>
 </tileset>
 <layer id="1" name="Sky" width="10" height="10">
  <data encoding="csv">
12,12,12,12,12,12,12,12,12,12,
12,12,12,12,12,12,12,12,12,12,
12,12,12,12,12,12,12,12,12,12,
12,12,12,12,12,12,12,12,12,12,
12,12,12,12,12,12,12,12,12,12,
12,12,12,12,12,12,12,12,12,12,
12,12,12,12,12,12,12,12,12,12,
12,12,12,12,12,12,12,12,12,12,
12,12,12,12,12,12,12,12,12,12,
12,12,12,12,12,12,12,12,12,12
</data>
 </layer>
 <layer id="2" name="Stars" width="10" height="10">
  <data encoding="csv">
0,0,0,24,0,0,4,0,18,0,
0,18,0,0,0,0,0,24,0,0,
24,4,0,0,0,18,0,0,0,0,
0,0,0,24,0,0,0,2,0,24,
0,0,0,0,0,0,0,0,0,0,
0,0,0,0,0,0,0,0,0,0,
0,0,0,0,0,0,0,0,0,0,
0,0,0,0,0,0,0,0,0,0,
0,0,0,0,0,0,0,0,0,0,
0,0,0,0,0,0,0,0,0,0
</data>
 </layer>
 <layer id="3" name="Moon" width="10" height="10">
  <data encoding="csv">
0,0,0,0,0,0,0,0,0,0,
0,0,0,0,0,0,0,0,0,0,
0,0,0,0,0,0,0,0,23,0,
0,0,0,0,0,0,0,0,0,0,
0,0,0,0,0,0,0,0,0,0,
0,0,0,0,0,0,0,0,0,0,
0,0,0,0,0,26,0,0,0,0,
0,0,0,0,0,0,0,0,0,0,
0,0,0,0,0,0,0,0,0,0,
0,0,0,0,0,0,0,0,0,0
</data>
 </layer>
</map>
